X:727
T:High Road to Linton, The
S:Sessions etc
Z:Nigel Gatherer
M:4/4
L:1/8
K:A
ceef  a2 ae | f2 fe a2 ae | ceef  a2 ae | faec B2 A2 :|
cee=g fddf  | ecce  fBBd  | cee=g fddf  | ecac B2 A2 :|
a2 a2 ef a2 | efae  faef  | a2 a2 efae  | faec B2 A2 :|
c2 ec defd  | c2 ec BcdB  | c2 ec defg  | afec B2 A2 :|
<end>
<start>
